src/22x22/places/folder-gruvbox-original-red-android.svg

<?xml version="1.0" encoding="UTF-8"?>
<svg width="22" height="22" version="1" xmlns="http://www.w3.org/2000/svg">
 <rect x="1" y="8.5" width="20" height="12" rx="1" ry="1" opacity=".2"/>
 <path d="m1 16c0 0.554 0.446 1 1 1h18c0.554 0 1-0.446 1-1v-11c0-0.554-0.446-1-1-1h-9c-1.5 0-2-2-3.5-2h-5.5c-0.554 0-1 0.446-1 1" fill="#9d0006"/>
 <rect x="1" y="7.5" width="20" height="12" rx="1" ry="1" opacity=".2"/>
 <rect x="3" y="6" width="16" height="8" rx="1" ry="1" fill="#efd2b3"/>
 <rect x="1" y="8" width="20" height="12" rx="1" ry="1" fill="#fb4934"/>
 <path d="m2 2c-0.554 0-1 0.446-1 1v0.5c0-0.554 0.446-1 1-1h5.5c1.5 0 2 2 3.5 2h9c0.554 0 1 0.446 1 1v-0.5c0-0.554-0.446-1-1-1h-9c-1.5 0-2-2-3.5-2z" fill="#efd2b3" opacity=".1"/>
 <path d="m7 11a1 1 0 0 0-0.6973 1.717l0.6739 0.674c-0.4794 0.622-0.8409 1.52-0.9668 2.832-0.0368 0.77 0.7754 0.771 0.7754 0.771l7.4298 0.031s0.835 0 0.795-0.806c-0.132-1.311-0.496-2.205-0.975-2.821l0.682-0.681a1 1 0 0 0-0.727-1.717 1 1 0 0 0-0.687 0.303l-0.961 0.961c-0.64-0.192-1.284-0.221-1.789-0.229-0.545-9e-3 -1.2229 0.015-1.8889 0.215l-0.9473-0.947a1 1 0 0 0-0.7168-0.303zm1.5 3a0.5 0.5 0 0 1 0.5 0.5 0.5 0.5 0 0 1-0.5 0.5 0.5 0.5 0 0 1-0.5-0.5 0.5 0.5 0 0 1 0.5-0.5zm4 0a0.5 0.5 0 0 1 0.5 0.5 0.5 0.5 0 0 1-0.5 0.5 0.5 0.5 0 0 1-0.5-0.5 0.5 0.5 0 0 1 0.5-0.5z" fill="#442e2d"/>
</svg>

<svg xmlns="http://www.w3.org/2000/svg" width="22" height="22" version="1">
 <rect style="opacity:0.2" width="20" height="12" x="1" y="8.5" rx="1" ry="1"/>
 <path style="fill:#9d0006" d="M 1,16 C 1,16.554 1.446,17 2,17 H 20 C 20.554,17 21,16.554 21,16 V 5 C 21,4.446 20.554,4 20,4 H 11 C 9.5,4 9,2 7.5,2 H 2 C 1.446,2 1,2.446 1,3"/>
 <rect style="opacity:0.2" width="20" height="12" x="1" y="7.5" rx="1" ry="1"/>
 <rect style="fill:#efd2b3" width="16" height="8" x="3" y="6" rx="1" ry="1"/>
 <rect style="fill:#fb4934" width="20" height="12" x="1" y="8" rx="1" ry="1"/>
 <path style="opacity:0.1;fill:#efd2b3" d="M 2,2 C 1.446,2 1,2.446 1,3 V 3.5 C 1,2.946 1.446,2.5 2,2.5 H 7.5 C 9,2.5 9.5,4.5 11,4.5 H 20 C 20.554,4.5 21,4.946 21,5.5 V 5 C 21,4.446 20.554,4 20,4 H 11 C 9.5,4 9,2 7.5,2 Z"/>
 <path style="fill:#442e2d" d="M 7 11 A 1 1 0 0 0 6.3027 12.717 L 6.9766 13.391 C 6.4972 14.013 6.1357 14.911 6.0098 16.223 C 5.973 16.993 6.7852 16.994 6.7852 16.994 L 14.215 17.025 C 14.215 17.025 15.05 17.025 15.01 16.219 C 14.878 14.908 14.514 14.014 14.035 13.398 L 14.717 12.717 A 1 1 0 0 0 13.99 11 A 1 1 0 0 0 13.303 11.303 L 12.342 12.264 C 11.702 12.072 11.058 12.043 10.553 12.035 C 10.008 12.026 9.3301 12.05 8.6641 12.25 L 7.7168 11.303 A 1 1 0 0 0 7 11 z M 8.5 14 A 0.5 0.5 0 0 1 9 14.5 A 0.5 0.5 0 0 1 8.5 15 A 0.5 0.5 0 0 1 8 14.5 A 0.5 0.5 0 0 1 8.5 14 z M 12.5 14 A 0.5 0.5 0 0 1 13 14.5 A 0.5 0.5 0 0 1 12.5 15 A 0.5 0.5 0 0 1 12 14.5 A 0.5 0.5 0 0 1 12.5 14 z"/>
</svg>
